X: 2049
T: The New Provo
%R: _
B: Henry Playford "Apollo's Banquet", London 1687 (5th Edition)
F: https://archive.org/details/apollosbanquetco01rugg
Z: 2017 John Chambers <jc:trillian.mit.edu>
M: 3/2
L: 1/8
K: G
% - - - - - - - - - -
GA |\
B3cd2 e3fg2 | a3ba2 f3ed2 | g3Bc2 A3d^c2 | d6- d3AB2 |\
c3de2 e3fg2 | a6- a4bf | f3ed2 g3af2 | g6- g4dc |
B3cA2 G3ga2 | f3ga2 d3ef2 | g2f3e |[M:C|] e8 |\
g3f e2d2 | c>dB>c A2G2 | FGA2 Bcd2 | e3e e3f |\
g2a2 d3d | d8 |
e3f g3a | g3f e3d | c3c c3B | A3A A3G |\
F3F G3A | B8 | c4 ^c4 | d3e f3g |\
a4 a3a | a4 e3f | g3g g3f | g6 :|
|: GA |\
B3B B3c | A6 zF | G3F E3F | F4 G3A |\
B3c d3e | ^c3d e3g | f3e e3d | d6 ::\
[M:3/2] A2c3d e2e4 | a2g3a f3ed2 |
b2g3a a3gf2 | g2f3e ^d2B4 | A2c3d e2e4 | a2g3a f3ed2 |\
b2g2a2 a3gf2 | g2g3f g4d2 |[M:3/2] g4f2 g4a2 | d4c2 c4B2 |\
B6- B4B2 |
e4d2 c4B2 | A4G2 G4F2 | G6- G4gf |\
[M:C|]\
g2d2 g2a2 | b2f2 g2^d2 | e2d2 c2B2 | A2^G2 A2ae |\
f2g2 g3f | g6 |]
[M:3/2]\
B2c2d2 G2G2A2 | B2cBAG A2A2d2 | B2Bcd2 G2G2A2 | B2cBAG F6 ::\
B2c2d2 e2e2f2 | g2agfe agabag | f2g2a2 ^d2e2f2 | f4e2 e4e2 |
d2B2c2 A2A2d2 | G2G2g2 g2e2e2 | d2B2c2 A2A2d2 | d3ec2 d3ef2 |\
g2d2g2 agaba2 | b2e2a2 fgfed2 | g2d2g2 agaba2 | b2e2f2 g6 |]
% - - - - - - - - - -

%%sep 1 1 500
%%sep 1 1 500

